X: 1
T: JIGS: Humours of Killarney Set
T: Humours of Killarney / Sheehan's / Cheer Up Old Hag
C: C: Trad.; S: ThZCh; Paudie O'Connor & John O'Brien // Méabh & Clíodhna Ní Bheaglaoich
C: Set Leaders: Oliushka, Anton
Z: Anton Zille ed.; The Session
N: https://thesession.org/members/26966/sets/71901
R: Jig
M: 6/8
L: 1/8
Q: 3/8=116
K: Gmaj
|:A|BGG G2 B|ded d2 c|BAB GBd|e2 f g2 G|
GBd gfe|fdB cBA|BGE EDE|c3 B2:|
|:A|BGE EDE|GED D2 A|BGE EDE|c2 d edc|
BGE EDE|GED D2 F|GBA GBA|G3 G2:|
T: Connaughtman's Rambles
K: Dmaj
|:FAA dAA|BAB dAG|FAA def|edB BAG|
FAA dAA|BAB def|gfe f2e|1 dBA BAG:|2 dBA B2 g||
|:fbb faa|fef deg|fbb faa|fed e2 g|
fbb faa|fef def|gfe f2 e|1 dBA B2 g:|2 dBA BAG||
T: Donncha Lynch's / Donncha Ó Loinsigh's
K: Amaj
|:EAA cAA|BAB cAF|EAA cAA|B/c/dc BAF|
EAA cAA|BAB cAA|Bcd e2d|cAA A2F:|
|:E3 ECE|FAA FAA|Bcd e2d|cAA BAF|
~E3 ECE|FAA FAA|Bcd e2d|cAA A2F:|

